X:31
T:The Decision Reel
R:reel
C:Brenda Stubbert
O:20th Century Cape Breton
S:Tune of the Month, March 2001
N:http://www.cranfordpub.com/stubbert
Q:333
L:1/8
M:C|
K:Bb
A|BdcA BFDF|EDCD EFGA|BdcA BFDF|EDCE DB,B,A|
BdcA BFDF|EDCD EFGA|BdcA BFDF|EdcA BB,B,|]
|:g|fBdf bfdf|gagf gccg|fBdf bfdB|FGBc dBBg|
fBdf bfdf|gagf gccg|fdcd BGFD|FGBc dBB|]
